X: 132
T: Cantantibus organis – Allegro pastorale
C: Franciszek Walczyński
%%abc-version 2.0
%%abcx-abcm2ps-target-version 5.9.1 (29 Sep 2008)
%%abc-creator hum2abc beta
%%abcx-conversion-date 2021/10/04 07:38:39
%%abc-edited-by Kamil Watkowski
%%abcx-initial-encoding-date 2021-08-09
%%humdrum-veritas 1843247890
%%humdrum-veritas-data 3203696032
%%linebreak <none>
%%barnumbers 0
L: 1/4
M: 3/4
N: Derived from pl-kozmzk--mzk-m-346--034_walczynski-franciszek--cantantibus-organis-allegro-pastorale.krn
%%staves {1 2}
V: 1 clef=treble
V: 2 clef=bass
K: Ab
[V:1] c/d/e2- & A/B/c2 | 
[V:2] z3 | 
[V:1] e3 & [dB][dB][cA] | 
[V:2] z3 | 
[V:1] A/B/c2- & F/G/A2 | 
[V:2] z3 | 
[V:1] c3 & [BG][BG][AF] | 
[V:2] z3 | 
[V:1] [cG=E][cGE][cGE] | 
[V:2] [C/C,/][D/D,/][CC,][B,B,,] | 
[V:1] [f2c2][dB] & F3 | 
[V:2] [A,2A,,2][B,B,,] | 
[V:1] c/B/AG & A/G/F=E | 
[V:2] C2B, & C,3 | 
[V:1] F3 & F3 | 
[V:2] A,3 & F,3 | 
[V:1] c/d/e2- & A/B/c2 | 
[V:2] z3 | 
[V:1] e3 & [dB][dB][cA] | 
[V:2] z3 | 
[V:1] A/B/c2- & F/G/A2 | 
[V:2] z3 | 
[V:1] c3 & [BG][BG][AF] | 
[V:2] z3 | 
[V:1] [cG=E][cGE][cGE] | 
[V:2] !fermata![C/C,/][D/D,/][CC,][B,B,,] | 
[V:1] [f2c2][dB] & F3 | 
[V:2] A,2D & A,,2B,, | 
[V:1] c/B/AG & A/G/E2- | 
[V:2] E/D/CB, & C,3 | 
[V:1] A3 & E3 ||  
[V:2] C3 & A,,3 ||  
[V:1] G/=D/!accent!G2- & z3 | 
[V:2] z3 & z3 | 
[V:1] G/=E/!accent!G2- & z3 | 
[V:2] z3 & z3 | 
[V:1] G/=D/G2- & z3 | 
[V:2] z3 & z3 | 
[V:1] !fermata!G3 & z3 ||  
[V:2] !fermata!z3 & z3 ||  
[V:1]  [K:C] e/f/e2 & E3 | 
[V:2]  [K:C] G,3 & C,3 | 
[V:1] dA/B/c & F2E | 
[V:2] A,2G, & C,3 | 
[V:1] B/c/B2 & D3 | 
[V:2] ^G,3 & E,3 | 
[V:1] A2F & C2D | 
[V:2] A,3 & A,,2D, | 
[V:1] E2D & B,3 | 
[V:2] =G,3- & =G,2F, | 
[V:1] G2F & C2D | 
[V:2] G,2A, & E,2F, | 
[V:1] E2D & C2B, | 
[V:2] G,3- & G,2G,, | 
[V:1] .E.DG & CB,z | 
[V:2] G,2z & C,G,,z | 
[V:1] e/f/e2 & E3 | 
[V:2] G,3 & C,3- | 
[V:1] dA/B/c & F2E | 
[V:2] A,2G, & C,3 | 
[V:1] B/c/B2 & D3 | 
[V:2] ^G,3 & E,3 | 
[V:1] A2F & C2D | 
[V:2] A,3 & A,,2D, | 
[V:1] GA/B/c/d/ & F2G- | 
[V:2] B,C/D/E/F/ & G,3- | 
[V:1] edc & G3 | 
[V:2] GFE & G,3 | 
[V:1] dcB & B/A/GF | 
[V:2] FED & G,,3 | 
[V:1] c3 & E3 | 
[V:2] C3- & C,3 | 
[V:1] z3 & z3 | 
[V:2] C/.G,/!accent!C2- & z3 | 
[V:1] z3 & z3 | 
[V:2] C/._A,/!accent!C2- & z3 | 
[V:1] z3 & z3 | 
[V:2] C._B,.F, & z3 | 
[V:1] z3 & z3 | 
[V:2] _A,2G, & z3 | 
[V:1] z3 & z3 | 
[V:2] F,3 & z3 | 
[V:1] [_E_D]zz |]  
[V:2] G,zz & _E,zz |]  
[V:1]  [K:Ab] c/d/e2- & A/B/c2 [I:setbarnb 44]| 
[V:2]  [K:Ab] z3 | 
[V:1] e3 & [dB][dB][cA] | 
[V:2] z3 | 
[V:1] [e3B3] & G3 | 
[V:2] E3 | 
[V:1] [cA]zz & Fxx | 
[V:2] Fzz | 
[V:1] A/B/c2- & F/G/A2 | 
[V:2] z3 | 
[V:1] c3 & [BG][BG][AF] | 
[V:2] z3 | 
[V:1] B3 & D3 | 
[V:2] G,3 & E,3 | 
[V:1] Azz & Cxx | 
[V:2] [A,E,]E,!accent!E,- & A,,zz | 
[V:1] A3- & C.D.B, | 
[V:2] E,.F,.D, & A,,3- | 
[V:1] !fermata!A3 & C3 |]  
[V:2] E,3 & !fermata!A,,3 |]  


